public/Logo.svg

<svg width="96" height="41" viewBox="0 0 96 41" fill="none" xmlns="http://www.w3.org/2000/svg">
<g id="Logo" clip-path="url(#clip0_2401_12575)">
<path id="Vector" fill-rule="evenodd" clip-rule="evenodd" d="M4.65753 25.3278C5.66979 25.5568 6.72891 25.4539 7.67815 25.0343C8.62739 24.6146 9.41631 23.9005 9.92816 22.9977L14.9099 14.2832C15.3765 14.3934 15.8241 14.5725 16.238 14.8145C17.3498 15.4648 18.1598 16.528 18.4914 17.7726C18.8231 19.0172 18.6497 20.3425 18.0089 21.4598L9.01011 37.1785C8.69553 37.7305 8.27479 38.2148 7.77215 38.6035C7.2695 38.9921 6.6949 39.2774 6.08146 39.4429C5.46803 39.6084 4.8279 39.6508 4.198 39.5677C3.56809 39.4846 2.96087 39.2776 2.41134 38.9587C1.3009 38.3059 0.492666 37.2415 0.162014 35.9965C-0.168639 34.7516 0.00495876 33.4264 0.64514 32.3087L4.65753 25.3278Z" fill="#B7B7DB"/>
<path id="Vector_2" d="M17.1545 0.652287C16.605 0.333377 15.9978 0.126404 15.3678 0.0433048C14.7379 -0.0397947 14.0978 0.00262275 13.4844 0.168111C12.8709 0.3336 12.2963 0.618885 11.7937 1.00752C11.2911 1.39615 10.8703 1.88044 10.5557 2.43246L1.54767 18.1744C0.906867 19.2918 0.733418 20.6171 1.06509 21.8617C1.39675 23.1063 2.20668 24.1695 3.31852 24.8198C3.73667 25.0546 4.18743 25.2258 4.65599 25.3278L9.64701 16.5947C10.1589 15.6918 10.9478 14.9777 11.897 14.5581C12.8463 14.1384 13.9054 14.0355 14.9176 14.2646L18.9207 7.27436C19.5521 6.15916 19.7209 4.84074 19.3906 3.60246C19.0603 2.36419 18.2575 1.30491 17.1545 0.652287Z" fill="#BDDBC7"/>
<path id="Vector_3" d="M26.6445 19.7022C26.6445 16.4556 27.6138 13.7683 29.5525 11.6402C30.4765 10.5969 31.618 9.76872 32.8965 9.21399C34.1751 8.65926 35.5596 8.39142 36.9528 8.42931C38.4295 8.41395 39.8869 8.76628 41.1935 9.45454C42.497 10.1502 43.6154 11.1471 44.4556 12.3625V8.77882H47.783V30.579C47.783 33.7106 46.8339 36.2302 44.9356 38.1378C43.0374 40.0453 40.5147 41.0022 37.3675 41.0084C34.6087 41.0084 32.3439 40.3172 30.573 38.9347C29.724 38.2908 29.0136 37.4822 28.4843 36.5573C27.955 35.6325 27.6177 34.6104 27.4927 33.5522L30.8992 32.8765C31.0955 34.2743 31.8253 35.542 32.9357 36.4135C34.0604 37.302 35.5377 37.7463 37.3675 37.7463C39.4864 37.7463 41.1951 37.1343 42.4937 35.9102C43.7923 34.6861 44.4432 32.9774 44.4463 30.784V27.028C43.5875 28.2145 42.4725 29.1924 41.1842 29.8893C39.8908 30.5683 38.4508 30.9203 36.9901 30.9145C35.5991 30.9525 34.2165 30.687 32.9385 30.1365C31.6606 29.586 30.5178 28.7638 29.5897 27.727C27.6263 25.6082 26.6445 22.9332 26.6445 19.7022ZM30.135 19.7022C30.135 22.0602 30.7998 23.9895 32.1295 25.4901C32.779 26.2201 33.5812 26.7981 34.4793 27.1831C35.3773 27.5681 36.3491 27.7506 37.3256 27.7177C38.2982 27.7506 39.2658 27.5656 40.1577 27.1761C41.0495 26.7867 41.8429 26.2026 42.4797 25.4668C43.7815 23.9942 44.4323 22.0727 44.4323 19.7022C44.4323 17.3317 43.7815 15.3947 42.4797 13.891C41.842 13.1569 41.0482 12.5746 40.1564 12.1868C39.2646 11.7989 38.2975 11.6154 37.3256 11.6495C36.3512 11.6165 35.3816 11.8005 34.487 12.1882C33.5924 12.5759 32.7951 13.1575 32.1528 13.891C30.7904 15.5151 30.0723 17.5833 30.135 19.7022Z" fill="#202020"/>
<path id="Vector_4" d="M54.6586 30.798H51.3359V8.77879H54.598V11.6494C55.2176 10.6801 56.0678 9.87954 57.0726 9.31937C58.1192 8.73185 59.3024 8.43123 60.5025 8.44792C61.836 8.42272 63.151 8.76275 64.3051 9.43121C65.4444 10.1054 66.3502 11.112 66.9008 12.3158C67.5554 11.1487 68.5011 10.171 69.6457 9.47781C71.0897 8.64076 72.7649 8.29077 74.4233 8.4796C76.0817 8.66844 77.6352 9.38608 78.8541 10.5263C80.2677 11.9679 80.9745 14.0712 80.9745 16.8362V30.8166H77.6285V17.0133C77.6285 15.2797 77.2044 13.9624 76.3563 13.0615C75.9233 12.6051 75.3969 12.2476 74.8129 12.0135C74.229 11.7795 73.6014 11.6743 72.973 11.7054C72.2881 11.681 71.6053 11.7943 70.965 12.0384C70.3246 12.2826 69.7398 12.6526 69.2449 13.1267C68.2756 14.0587 67.7909 15.3978 67.7909 17.1438V30.798H64.4915V17.0133C64.4915 15.2797 64.069 13.9624 63.224 13.0615C62.7928 12.6066 62.2686 12.2501 61.6872 12.0161C61.1058 11.782 60.4808 11.6761 59.8547 11.7054C59.1608 11.6841 58.4702 11.8093 57.8279 12.0726C57.1855 12.336 56.6059 12.7317 56.1266 13.2339C55.1448 14.2405 54.6524 15.6525 54.6493 17.47L54.6586 30.798Z" fill="#202020"/>
<path id="Vector_5" d="M81.0195 11.837V8.7799H84.6544V4.88867H88.0004V8.7799H95.8388V11.837H88.0004V24.0046C88.0004 25.3623 88.2987 26.3595 88.8952 26.9964C89.4917 27.6333 90.4128 27.944 91.6587 27.9285C92.764 27.8745 93.8497 27.6153 94.8602 27.1642L95.6291 30.0675C94.2325 30.7382 92.7089 31.1036 91.16 31.1393C89.094 31.1393 87.494 30.563 86.3601 29.4104C85.2261 28.2578 84.6576 26.6423 84.6544 24.5638V11.837H81.0195Z" fill="#202020"/>
</g>
<defs>
<clipPath id="clip0_2401_12575">
<rect width="96" height="41" fill="white"/>
</clipPath>
</defs>
</svg>

<svg width="96" height="41" fill="none" xmlns="http://www.w3.org/2000/svg"><g clip-path="url(#a)"><path fill-rule="evenodd" clip-rule="evenodd" d="M4.658 25.328a4.833 4.833 0 0 0 5.27-2.33l4.982-8.715a4.884 4.884 0 0 1 3.099 7.177L9.01 37.178a4.815 4.815 0 0 1-6.599 1.78 4.893 4.893 0 0 1-1.766-6.65l4.013-6.98Z" fill="#B7B7DB"/><path d="M17.154.652a4.813 4.813 0 0 0-6.598 1.78L1.548 18.174a4.884 4.884 0 0 0 1.77 6.646 4.83 4.83 0 0 0 1.338.508l4.991-8.733a4.832 4.832 0 0 1 5.27-2.33l4.004-6.99A4.893 4.893 0 0 0 17.154.651Z" fill="#BDDBC7"/><path d="M26.645 19.702c0-3.246.969-5.934 2.907-8.062a9.539 9.539 0 0 1 7.4-3.21 8.9 8.9 0 0 1 4.242 1.025 9.273 9.273 0 0 1 3.262 2.908V8.779h3.327v21.8c0 3.132-.95 5.651-2.847 7.559-1.899 1.907-4.421 2.864-7.569 2.87-2.758 0-5.023-.69-6.794-2.073a7.923 7.923 0 0 1-3.08-5.383l3.406-.675a5.462 5.462 0 0 0 2.037 3.536c1.124.889 2.602 1.333 4.431 1.333 2.12 0 3.828-.612 5.127-1.836 1.298-1.224 1.95-2.933 1.952-5.126v-3.756a9.759 9.759 0 0 1-3.262 2.861 8.947 8.947 0 0 1-4.194 1.026 9.58 9.58 0 0 1-7.4-3.188c-1.964-2.119-2.945-4.794-2.945-8.025Zm3.49 0c0 2.358.665 4.287 1.994 5.788a6.655 6.655 0 0 0 5.197 2.228 6.525 6.525 0 0 0 5.154-2.251c1.302-1.473 1.952-3.394 1.952-5.765 0-2.37-.65-4.307-1.952-5.811a6.523 6.523 0 0 0-5.154-2.242 6.579 6.579 0 0 0-5.173 2.242 8.644 8.644 0 0 0-2.018 5.811ZM54.659 30.798h-3.323V8.778h3.262v2.871c.62-.969 1.47-1.77 2.475-2.33a6.813 6.813 0 0 1 3.43-.871 7.311 7.311 0 0 1 3.802.983 6.487 6.487 0 0 1 2.596 2.885 7.75 7.75 0 0 1 2.745-2.838 7.773 7.773 0 0 1 9.208 1.048c1.414 1.442 2.12 3.545 2.12 6.31v13.98h-3.346V17.014c0-1.733-.424-3.05-1.272-3.952a4.367 4.367 0 0 0-3.383-1.356 5.125 5.125 0 0 0-3.728 1.422c-.97.932-1.454 2.27-1.454 4.017v13.654h-3.3V17.013c0-1.733-.422-3.05-1.267-3.952a4.36 4.36 0 0 0-3.37-1.356 4.944 4.944 0 0 0-3.727 1.529c-.982 1.007-1.475 2.418-1.478 4.236l.01 13.328ZM81.02 11.837V8.78h3.634V4.889H88v3.89h7.839v3.058H88v12.168c0 1.357.299 2.355.895 2.991.597.637 1.518.948 2.764.933a8.922 8.922 0 0 0 3.201-.765l.77 2.903a10.904 10.904 0 0 1-4.47 1.072c-2.066 0-3.666-.576-4.8-1.729-1.134-1.152-1.702-2.768-1.706-4.846V11.837H81.02Z" fill="#202020"/></g><defs><clipPath id="a"><path fill="#fff" d="M0 0h96v41H0z"/></clipPath></defs></svg>
